!!!COM: Bach, Johann Sebastian
!!!OTL: 157. Wo Gott zum Haus nicht gibt
!!!ONM: No. 157
!!!OCL: Erk
!!!SCA: BWV 438
!!!YOE: Riemenschneider, Albert
!!!OPR: 371 Harmonized Chorales and 69 Chorale Melodies with Figured Bass
!!!OPT: Bach Chorale Harmonizations
**harm	**root	**kern	**kern	**kern	**kern
!	!	!bass	!tenor	!alto	!sprno
*Iorgan	*Iorgan	*Iorgan	*Iorgan	*Iorgan	*Iorgan
*k[b-e-]	*k[b-e-]	*k[b-e-]	*k[b-e-]	*k[b-e-]	*k[b-e-]
*B-:	*B-:	*B-:	*B-:	*B-:	*B-:
*met(c)	*met(c)	*met(c)	*met(c)	*met(c)	*met(c)
*M4/4	*M4/4	*M4/4	*M4/4	*M4/4	*M4/4
*MM60	*MM60	*MM60	*MM60	*MM60	*MM60
I	4FF	8B-	8d	4f	4b-
.	.	8c	8e-	.	.
=1	=1	=1	=1	=1	=1
Ib	4FF	8d	8f	8b-	4ff
.	.	8e-	8g	8cc	.
iiib	8AA	4f	4a	8dd	8ff
V7	8CC	.	.	[8cc	8ee-
I	4FF	4B-	4f	8cc]	4dd
.	.	.	.	[8b-	.
V	4CC	4F	4f	8b-]	4cc
.	.	.	.	8a	.
=2	=2	=2	=2	=2	=2
I	4FF	4B-	4f	8b-	4dd
.	.	.	.	8a	.
II	4GG	4c	4c	4g	4ee
V;	4CC;	4F;	4c;	4a;	4ff;
Vb	4CC	4A	4f	[4cc	4ff
=3	=3	=3	=3	=3	=3
I	4FF	4B-	[4f	8cc]	4dd
.	.	.	.	8b-	.
Vb	8CC	8A	8f]	8cc	4ff
iiib	8AA	8F	8a	[8dd	.
IV7b	8BB-	8G	8b-	8dd]	4ee-
ii	8GG	8c	8g	16cc	.
.	.	.	.	16b-	.
Vb	4CC	8A	4f	[4cc	4ff
.	.	8F	.	.	.
=4	=4	=4	=4	=4	=4
I	4FF	4B-	4f	8cc]	4dd
.	.	.	.	4b-	.
V	4CC	4F	8f	.	4cc
.	.	.	8e-	8a	.
I;	4FF;	4BB-;	4d;	4f;	4b-;
I	4FF	4B-	4d	4b-	4ff
=5	=5	=5	=5	=5	=5
!!linebreak: 2
IV	4BB-	8E-	4e-	4b-	4gg
.	.	8F	.	.	.
IVb	4BB-	8G	8B-	4b-	4gg
.	.	8A	8c	.	.
I	4FF	8B-	4d	4.f	4dd
.	.	8c	.	.	.
Ib	8FF	8d	8b-	.	4ff
viioD7/ii	8FF#	8B	8a-	[8dd	.
=6	=6	=6	=6	=6	=6
ii	4GG	8c	4g	8dd]	4ee-
.	.	8d	.	16cc	.
.	.	.	.	16b	.
iib	4GG	8e-	4g	[4cc	4ee-
.	.	8f	.	.	.
V/ii;	4DD;	4g;	4g;	8cc]	4dd;
.	.	.	.	8b;	.
vi	4DD	4G	4g	4dd	4bb-
=7	=7	=7	=7	=7	=7
iii	4AA	4d	4f	8dd	4aa
.	.	.	.	8cc	.
IV	4BB-	4e-	8g	8b-	4gg
.	.	.	8a	8cc	.
I	4FF	8B-	4b-	8dd	4.ff
.	.	8A	.	8cc	.
vi7	4DD	4G	4d	4b-	.
.	.	.	.	.	8gg
=8	=8	=8	=8	=8	=8
ii7	4GG	4c	4.e-	4.b-	8ee-
.	.	.	.	.	8dd
V	4CC	4F	.	.	4cc
.	.	.	16f	8a	.
.	.	.	16e-	.	.
I;	4FF;	4B-;	4d;	4f;	4b-;
==	==	==	==	==	==
*-	*-	*-	*-	*-	*-
!!!CDT: 1685/3//-1750/7/28
!!!OCY: Deutschland
!!!AGN: chorale
!!!AST: Baroque
!!!AIN: vox
!!!YOY: 1941
!!!PPP: New York; London
!!!PPR: G. Schirmer
!!!ENC: David Huron
!!!EED: David Huron
!!!YEN: United States of America
!!!YER: 1992
!!!YEC: Copyright 1992 David Huron
!!!YEM: Rights to all derivative electronic formats reserved.
!!!YER: March 20, 1996
!!!AMT: simple quadruple
!!!EEV: 1.1
!!chor2scor: -l 2 -s 0.6 -o %b.pmx
